X:0946
T:Inch of Garth.
M:C
L:1/8
Q:1/4=120
I: :: ||
Z:Jack Campin * www.campin.me.uk * 2009
K:D
d>D D/D/D A>FDF |Egfe f>dBc |d>D D/D/D A>FDF |E>DEF  D/D/D D2:|
d>ef>g    a>fdf |ecgc d>Bg>B|d>ef>g    a>fd>f|e>cg>e d/d/d d2 |
d>ef>g    a>fd>f|ecgc d<Bg>B|d>ef>g    a>ba>f|g<eg>f d/d/d d2|]

